.icons/Gruvbox-Plus-Light/apps/16/freeorion.svg

<svg width="16" height="16" version="1.1" xmlns="http://www.w3.org/2000/svg">
  <defs>
    <style id="current-color-scheme" type="text/css">.ColorScheme-Text { color:#282828; } .ColorScheme-Highlight { color:#458588; }</style>
  </defs>
  <path class="ColorScheme-Text" d="m6.961 3.393c-0.652 0.149-1.264 0.434-1.798 0.837l-0.072 0.134c0.481-0.313 1.242-0.281 1.813-0.341l0.057-0.63zm2.078 2e-3 0.102 1.127c0.862 0.517 1.471 1.368 1.683 2.351l1.812 0.213c-0.364-1.833-1.774-3.28-3.597-3.691zm-5.128 2.251c-0.259 0.447-0.443 0.933-0.545 1.439l0.323-0.037c2e-3 -0.548 0.222-1.402 0.222-1.402zm-0.548 3.268c0.364 1.833 1.775 3.28 3.598 3.691l-0.124-1.361c-1.322-0.16-2.451-1.029-2.943-2.267l-0.531-0.063zm9.271 1e-3 -2.062 0.242c-0.294 0.638-0.767 1.178-1.361 1.554l-0.172 1.896c1.823-0.412 3.232-1.859 3.595-3.692zm-4.634-8.915-0.779 7.221-5.403 0.779 5.403 0.779 0.779 7.221 0.779-7.221 5.403-0.779-5.403-0.779-0.779-7.221z" fill="currentColor"/>
</svg>

<svg width="16" height="16" version="1.1" xmlns="http://www.w3.org/2000/svg">
  <defs>
    <style type="text/css" id="current-color-scheme">.ColorScheme-Text { color:#282828; } .ColorScheme-Highlight { color:#458588; }</style>
  </defs>
 <path class="ColorScheme-Text" fill="currentColor" d="M 6.961 3.393 C 6.309 3.542 5.697 3.827 5.163 4.23 L 5.091 4.364 C 5.572 4.051 6.333 4.083 6.904 4.023 L 6.961 3.393 L 6.961 3.393 L 6.961 3.393 Z M 9.039 3.395 L 9.141 4.522 C 10.003 5.039 10.612 5.89 10.824 6.873 L 12.636 7.086 C 12.272 5.253 10.862 3.806 9.039 3.395 L 9.039 3.395 L 9.039 3.395 L 9.039 3.395 Z M 3.911 5.646 C 3.652 6.093 3.468 6.579 3.366 7.085 L 3.689 7.048 C 3.691 6.5 3.911 5.646 3.911 5.646 L 3.911 5.646 L 3.911 5.646 L 3.911 5.646 Z M 3.363 8.914 C 3.727 10.747 5.138 12.194 6.961 12.605 L 6.837 11.244 C 5.515 11.084 4.386 10.215 3.894 8.977 L 3.363 8.914 L 3.363 8.914 L 3.363 8.914 Z M 12.634 8.915 L 10.572 9.157 C 10.278 9.795 9.805 10.335 9.211 10.711 L 9.039 12.607 C 10.862 12.195 12.271 10.748 12.634 8.915 L 12.634 8.915 L 12.634 8.915 L 12.634 8.915 Z M 8 0 L 7.221 7.221 L 1.818 8 L 7.221 8.779 L 8 16 L 8.779 8.779 L 14.182 8 L 8.779 7.221 L 8 0 Z"/>
</svg>
